X: 1
T:Nightingale -- Clog
M:C|
L:1/8
R:clog
B:Ryan's Mammoth Collection
Z:Contributed by Ray Davies, ray:davies99.freeserve.co.uk
K:F
((3AB=B)|\
c>af>d ((3c=Bc)((3dcA)|B>bg>d B2((3GAB)|\
c>eg>e b>ge>c|(3fag(3fed(3cFG(3AB=B|\
c>af>d((3c=Bc)((3dcA)|B>bg>d B2((3GAB)|c>eg>e b>ge>c|f>ca>g f2:|
|:A>^c|(3dAd(3fdf a>fd>A|(3^cAc(3ece g>fe>d|^c>bg>e c>_BG>A|\
(3FDF(3AFA d>AB>=B|c>af>d (3c=Bc(3dcA|B>bg>d B2((3GAB)|\
c>eg>e b>ge>c|f>ca>g f2:|
